teeny/outline/game-controller-retro.svg

<svg width="15" height="15" viewBox="0 0 15 15" fill="none" xmlns="http://www.w3.org/2000/svg">
<path d="M8 5.5H10M4.5 6V9M3 7.5H6M10 9.5H12M0.5 3.5L0.5 11.5C0.5 12.0523 0.947716 12.5 1.5 12.5L13.5 12.5C14.0523 12.5 14.5 12.0523 14.5 11.5V3.5C14.5 2.94772 14.0523 2.5 13.5 2.5L1.5 2.5C0.947716 2.5 0.5 2.94772 0.5 3.5Z" stroke="black"/>
</svg>

<svg viewBox="0 0 15 15" xmlns="http://www.w3.org/2000/svg"><path fill="none" stroke="#000" d="M8 5.5h2M4.5 6v3M3 7.5h3m4 2h2M.5 3.5v8c0 .55.44 1 1 1h12c.55 0 1-.45 1-1v-8c0-.56-.45-1-1-1h-12c-.56 0-1 .44-1 1Z"/></svg>
